X:1
T:Wild Mountain Thyme
C: (Arr. YT - Fiddlehed)
M:3/4
L:1/8
K:Dmaj
| D2B,2 |: A,2 A,4 | (B,4D2) | (D5|D2) F2A2 | B5 | (B4A2) |
F2(A4|A2) F2A2 | B5 | (A4F2) | E2(D4|D2) E2F2 | (G4F2) |
(E4D2) | B,2(D4|D2) D2B,2 | A,5 | B,2D4 | (D5|[1 D2) C2B,2 :| [2 D5) |
